X: 19364
T: Jack's Everlasting Presents
R: jig
M: 6/8
K: Dmajor
dFd FdF|GEE EFG|dFd FdF|GAB BAG|
dFd FdF|GEE d3|c2B ABc|d3d3:|
fd2fd2|gee efg|fdd fd2|cAA ABc|
fd2fd2|efg g3|a2a gfe|d3d3:|

